assets/i18n/b-zh-tw-dk.svg

<?xml version="1.0" encoding="UTF-8"?>
<svg width="178px" height="24px" viewBox="0 0 178 24" version="1.1" xmlns="http://www.w3.org/2000/svg" xmlns:xlink="http://www.w3.org/1999/xlink">
    <!-- Generator: Sketch 51.3 (57544) - http://www.bohemiancoding.com/sketch -->
    <title>SwG-zh-tw Copy-Black</title>
    <desc>Created with Sketch.</desc>
    <defs></defs>
    <g id="SwG-zh-tw-Copy" stroke="none" stroke-width="1" fill="none" fill-rule="evenodd">
        <path d="M2.898,0.577 C4.485,1.773 5.819,2.969 6.9,4.165 L5.727,5.315 C4.761,4.165 3.45,2.946 1.771,1.658 L2.898,0.577 Z M16.353,20.886 C15.088,20.886 13.708,20.863 12.236,20.84 C10.741,20.817 9.522,20.679 8.602,20.426 C7.682,20.15 6.854,19.575 6.141,18.747 C5.819,18.356 5.52,18.172 5.244,18.172 C4.692,18.172 3.772,19.23 2.507,21.346 L1.265,20.219 C2.484,18.287 3.565,17.114 4.508,16.7 L4.508,9.708 L1.242,9.708 L1.242,8.19 L6.049,8.19 L6.049,16.792 C6.233,16.93 6.417,17.091 6.624,17.321 C7.176,17.988 7.774,18.471 8.418,18.77 C9.154,19.092 10.189,19.276 11.569,19.322 C12.788,19.345 14.306,19.368 16.123,19.368 C17.181,19.368 18.285,19.345 19.412,19.322 C20.516,19.299 21.367,19.276 21.965,19.23 L21.574,20.886 L16.353,20.886 Z M12.236,2.785 C13.202,3.36 14.099,3.935 14.881,4.51 C16.077,3.889 17.181,3.199 18.193,2.417 L7.981,2.417 L7.981,1.014 L20.424,1.014 L20.424,2.21 C19.044,3.406 17.549,4.441 15.939,5.315 L16.307,5.614 L20.861,5.614 L20.861,15.895 C20.861,17.068 20.217,17.666 18.929,17.666 L17.02,17.666 L16.652,16.263 L18.469,16.332 C19.021,16.332 19.297,16.056 19.297,15.55 L19.297,13.825 L15.433,13.825 L15.433,17.781 L13.892,17.781 L13.892,13.825 L10.051,13.825 L10.051,17.85 L8.487,17.85 L8.487,5.614 L14.237,5.614 C13.363,4.993 12.351,4.372 11.224,3.774 L12.236,2.785 Z M10.051,10.444 L10.051,12.468 L13.892,12.468 L13.892,10.444 L10.051,10.444 Z M15.433,10.444 L15.433,12.468 L19.297,12.468 L19.297,10.444 L15.433,10.444 Z M19.297,9.064 L19.297,6.994 L15.433,6.994 L15.433,9.064 L19.297,9.064 Z M13.892,9.064 L13.892,6.994 L10.051,6.994 L10.051,9.064 L13.892,9.064 Z M25.90375,0.577 C27.42175,1.773 28.68675,2.969 29.72175,4.165 L28.57175,5.315 C27.65175,4.165 26.38675,2.946 24.77675,1.658 L25.90375,0.577 Z M39.40475,20.909 C38.11675,20.909 36.71375,20.886 35.19575,20.863 C33.67775,20.84 32.41275,20.702 31.44675,20.472 C30.52675,20.196 29.69875,19.644 28.96275,18.816 C28.64075,18.425 28.31875,18.241 28.04275,18.241 C27.55975,18.241 26.73175,19.276 25.58175,21.346 L24.33975,20.219 C25.46675,18.356 26.45575,17.206 27.30675,16.792 L27.30675,9.708 L24.27075,9.708 L24.27075,8.19 L28.87075,8.19 L28.87075,16.861 C29.05475,16.999 29.23875,17.16 29.44575,17.39 C30.02075,18.034 30.64175,18.54 31.30875,18.862 C32.04475,19.161 33.12575,19.322 34.50575,19.368 C35.74775,19.391 37.31175,19.414 39.17475,19.414 C40.27875,19.414 41.40575,19.391 42.55575,19.391 C43.65975,19.368 44.53375,19.345 45.15475,19.299 L44.76375,20.909 L39.40475,20.909 Z M42.78575,0.968 L42.78575,7.753 L44.48775,7.753 L44.48775,16.286 C44.48775,17.482 43.79775,18.08 42.46375,18.08 L40.39375,18.08 L40.02575,16.677 L41.98075,16.746 C42.57875,16.746 42.90075,16.47 42.90075,15.941 L42.90075,9.202 L32.59675,9.202 L32.59675,17.942 L30.98675,17.942 L30.98675,7.753 L32.61975,7.753 L32.61975,0.968 L42.78575,0.968 Z M34.18375,7.753 L37.17375,7.753 L37.17375,5.591 L34.18375,5.591 L34.18375,7.753 Z M34.18375,4.257 L38.59975,4.257 L38.59975,7.753 L41.22175,7.753 L41.22175,2.417 L34.18375,2.417 L34.18375,4.257 Z M34.48275,10.674 L40.89975,10.674 L40.89975,15.642 L34.48275,15.642 L34.48275,10.674 Z M39.51975,14.354 L39.51975,11.893 L35.88575,11.893 L35.88575,14.354 L39.51975,14.354 Z" id="通過" fill="#FFFFFF"></path>
        <path d="M144.143,1.704 L155.942,1.704 L155.942,3.245 L151.572,3.245 L151.572,18.701 C151.572,20.242 150.882,21.024 149.525,21.024 L146.167,21.024 L145.822,19.437 C146.903,19.506 147.938,19.552 148.95,19.552 C149.64,19.552 149.985,19.138 149.985,18.31 L149.985,3.245 L144.143,3.245 L144.143,1.704 Z M137.473,19.851 L137.473,21.369 L135.886,21.369 L135.886,13.181 L142.809,13.181 L142.809,20.955 L141.222,20.955 L141.222,19.851 L137.473,19.851 Z M141.222,18.333 L141.222,14.676 L137.473,14.676 L137.473,18.333 L141.222,18.333 Z M135.242,3.222 L138.945,3.222 C138.623,2.302 138.209,1.405 137.726,0.577 L139.336,0.14 C139.796,1.152 140.187,2.095 140.463,2.923 L139.658,3.222 L143.568,3.222 L143.568,4.763 L135.242,4.763 L135.242,3.222 Z M136.07,6.58 L142.579,6.58 L142.579,8.052 L136.07,8.052 L136.07,6.58 Z M136.07,9.754 L142.579,9.754 L142.579,11.249 L136.07,11.249 L136.07,9.754 Z M160.70875,5.154 L160.70875,6.718 L165.99875,6.718 L165.99875,5.154 L160.70875,5.154 Z M165.99875,3.981 L165.99875,2.417 L160.70875,2.417 L160.70875,3.981 L165.99875,3.981 Z M171.17375,5.154 L171.17375,6.741 L176.55575,6.741 L176.55575,5.154 L171.17375,5.154 Z M176.55575,3.981 L176.55575,2.463 L171.17375,2.463 L171.17375,3.981 L176.55575,3.981 Z M167.65475,1.106 L167.65475,8.052 L160.70875,8.052 L160.70875,21.3 L159.05275,21.3 L159.05275,1.106 L167.65475,1.106 Z M176.55575,8.052 L169.51775,8.052 L169.51775,1.129 L178.21175,1.129 L178.21175,19.368 C178.21175,20.587 177.61375,21.208 176.41775,21.208 C175.65875,21.208 174.89975,21.185 174.16375,21.139 L173.95675,20.334 C173.68075,20.426 173.35875,20.495 172.99075,20.495 L171.03575,20.495 C169.97775,20.495 169.44875,19.943 169.44875,18.885 L169.44875,16.217 L167.42475,16.217 C167.10275,18.333 165.60775,19.897 162.91675,20.886 L162.08875,19.552 C164.34275,18.862 165.63075,17.735 165.90675,16.217 L164.25075,16.217 L164.25075,12.583 C163.76775,13.02 163.26175,13.411 162.75575,13.733 L161.60575,12.744 C163.35375,11.686 164.66475,10.283 165.53875,8.512 L166.84975,9.041 C166.43575,9.823 165.99875,10.559 165.49275,11.203 L171.54175,11.203 C170.98975,10.513 170.57575,9.8 170.25375,9.041 L171.51875,8.328 C172.20875,10.03 173.47375,11.387 175.31375,12.399 L174.32475,13.572 C173.72675,13.204 173.19775,12.836 172.73775,12.422 L172.73775,16.217 L170.98975,16.217 L170.98975,18.563 C170.98975,18.931 171.15075,19.138 171.47275,19.138 L172.71475,19.138 C172.99075,19.138 173.19775,19.046 173.33575,18.885 C173.51975,18.655 173.63475,18.057 173.68075,17.068 L175.06075,17.505 C174.96875,18.563 174.80775,19.299 174.62375,19.713 C175.03775,19.736 175.45175,19.759 175.81975,19.759 C176.30275,19.759 176.55575,19.46 176.55575,18.862 L176.55575,8.052 Z M171.28875,14.883 L171.28875,12.514 L165.72275,12.514 L165.72275,14.883 L171.28875,14.883 Z" id="訂閱" fill="#FFFFFF"></path>
        <g id="Group" transform="translate(53.000000, 0.000000)" fill="#FFFFFF" fill-rule="nonzero">
            <path d="M9.36714443,19 C4.27673649,19 0,14.7346939 0,9.5 C0,4.26530612 4.27673649,0 9.36714443,0 C12.185226,0 14.1896362,1.13265306 15.6979052,2.62244898 L13.92172,4.44897959 C12.8401323,3.40816327 11.3715546,2.59183673 9.36714443,2.59183673 C5.646086,2.59183673 2.73869901,5.67346939 2.73869901,9.5 C2.73869901,13.3265306 5.646086,16.4081633 9.36714443,16.4081633 C11.7783903,16.4081633 13.1477398,15.4081633 14.030871,14.5102041 C14.755237,13.7653061 15.2216097,12.7040816 15.4002205,11.244898 L9.36714443,11.244898 L9.36714443,8.64285714 L17.8610805,8.64285714 C17.9503859,9.10204082 18,9.66326531 18,10.2653061 C18,12.2142857 17.4840132,14.622449 15.8169791,16.3367347 C14.1896362,18.0714286 12.1256891,19 9.36714443,19 Z" id="Shape"></path>
            <path d="M32,13 C32,16.4557596 29.3096447,19 26,19 C22.6903553,19 20,16.4557596 20,13 C20,9.52420701 22.6903553,7 26,7 C29.3096447,7 32,9.52420701 32,13 Z M29.3705584,13 C29.3705584,10.836394 27.8071066,9.3639399 26,9.3639399 C24.1928934,9.3639399 22.6294416,10.8464107 22.6294416,13 C22.6294416,15.1335559 24.1928934,16.6360601 26,16.6360601 C27.8071066,16.6360601 29.3705584,15.1435726 29.3705584,13 Z" id="Shape"></path>
            <path d="M45,13 C45,16.4557596 42.3096447,19 39,19 C35.7005076,19 33,16.4557596 33,13 C33,9.52420701 35.6903553,7 39,7 C42.3096447,7 45,9.52420701 45,13 Z M42.3807107,13 C42.3807107,10.836394 40.8172589,9.3639399 39.0101523,9.3639399 C37.2030457,9.3639399 35.6395939,10.8464107 35.6395939,13 C35.6395939,15.1335559 37.2030457,16.6360601 39.0101523,16.6360601 C40.8172589,16.6460768 42.3807107,15.1435726 42.3807107,13 Z" id="Shape"></path>
            <path d="M57,7.3621186 L57,17.8929188 C57,22.228555 54.5013055,24 51.5430809,24 C48.7571802,24 47.0913838,22.0915371 46.45953,20.5354059 L48.6518712,19.6056419 C49.0443864,20.5647668 50.0017406,21.6902706 51.5430809,21.6902706 C53.4386423,21.6902706 54.6066144,20.4864709 54.6066144,18.2452504 L54.6066144,17.4035694 L54.5204526,17.4035694 C53.9556136,18.1180196 52.8642298,18.7345999 51.4952132,18.7345999 C48.6231506,18.7345999 46,16.1801957 46,12.8917674 C46,9.58376511 48.6327241,7 51.4952132,7 C52.8642298,7 53.9556136,7.6263673 54.5204526,8.31145653 L54.6066144,8.31145653 L54.6066144,7.3621186 L57,7.3621186 Z M54.7789382,12.9015544 C54.7789382,10.8364997 53.4290688,9.31951641 51.7154047,9.31951641 C49.97302,9.31951641 48.5178416,10.8267127 48.5178416,12.9015544 C48.5178416,14.9470351 49.97302,16.4346575 51.7154047,16.4346575 C53.4290688,16.4346575 54.7789382,14.9470351 54.7789382,12.9015544 Z" id="Shape"></path>
            <polygon id="Shape" points="63 1 63 19 60 19 60 1"></polygon>
            <path d="M72.8441203,14.9732888 L74.8896992,16.3355593 C74.2278943,17.3171953 72.633546,19 69.8760255,19 C66.4567001,19 64,16.3656093 64,13 C64,9.43405676 66.4867821,7 69.5852325,7 C72.7037375,7 74.2278943,9.47412354 74.7292616,10.8163606 L75,11.4974958 L66.9680948,14.8230384 C67.579763,16.0250417 68.5423883,16.6460768 69.8860529,16.6460768 C71.2297174,16.6460768 72.1622607,15.9749583 72.8441203,14.9732888 Z M66.5369189,12.8096828 L71.911577,10.5859766 C71.6107566,9.83472454 70.72835,9.31385643 69.6754786,9.31385643 C68.331814,9.31385643 66.4667274,10.4958264 66.5369189,12.8096828 Z" id="Shape"></path>
        </g>
    </g>
</svg>

<svg width="178" height="24" viewBox="0 0 178 24" xmlns="http://www.w3.org/2000/svg"><title>SwG-zh-tw-Black</title><desc>Created with Sketch.</desc><g fill="none"><path d="M2.898.577c1.587 1.196 2.921 2.392 4.002 3.588l-1.173 1.15c-.966-1.15-2.277-2.369-3.956-3.657l1.127-1.081zm13.455 20.309c-1.265 0-2.645-.023-4.117-.046-1.495-.023-2.714-.161-3.634-.414-.92-.276-1.748-.851-2.461-1.679-.322-.391-.621-.575-.897-.575-.552 0-1.472 1.058-2.737 3.174l-1.242-1.127c1.219-1.932 2.3-3.105 3.243-3.519v-6.992h-3.266v-1.518h4.807v8.602c.184.138.368.299.575.529.552.667 1.15 1.15 1.794 1.449.736.322 1.771.506 3.151.552 1.219.023 2.737.046 4.554.046 1.058 0 2.162-.023 3.289-.046 1.104-.023 1.955-.046 2.553-.092l-.391 1.656h-5.221zm-4.117-18.101c.966.575 1.863 1.15 2.645 1.725 1.196-.621 2.3-1.311 3.312-2.093h-10.212v-1.403h12.443v1.196c-1.38 1.196-2.875 2.231-4.485 3.105l.368.299h4.554v10.281c0 1.173-.644 1.771-1.932 1.771h-1.909l-.368-1.403 1.817.069c.552 0 .828-.276.828-.782v-1.725h-3.864v3.956h-1.541v-3.956h-3.841v4.025h-1.564v-12.236h5.75c-.874-.621-1.886-1.242-3.013-1.84l1.012-.989zm-2.185 7.659v2.024h3.841v-2.024h-3.841zm5.382 0v2.024h3.864v-2.024h-3.864zm3.864-1.38v-2.07h-3.864v2.07h3.864zm-5.405 0v-2.07h-3.841v2.07h3.841zm12.012-8.487c1.518 1.196 2.783 2.392 3.818 3.588l-1.15 1.15c-.92-1.15-2.185-2.369-3.795-3.657l1.127-1.081zm13.501 20.332c-1.288 0-2.691-.023-4.209-.046-1.518-.023-2.783-.161-3.749-.391-.92-.276-1.748-.828-2.484-1.656-.322-.391-.644-.575-.92-.575-.483 0-1.311 1.035-2.461 3.105l-1.242-1.127c1.127-1.863 2.116-3.013 2.967-3.427v-7.084h-3.036v-1.518h4.6v8.671c.184.138.368.299.575.529.575.644 1.196 1.15 1.863 1.472.736.299 1.817.46 3.197.506 1.242.023 2.806.046 4.669.046l3.381-.023c1.104-.023 1.978-.046 2.599-.092l-.391 1.61h-5.359zm3.381-19.941v6.785h1.702v8.533c0 1.196-.69 1.794-2.024 1.794h-2.07l-.368-1.403 1.955.069c.598 0 .92-.276.92-.805v-6.739h-10.304v8.74h-1.61v-10.189h1.633v-6.785h10.166zm-8.602 6.785h2.99v-2.162h-2.99v2.162zm0-3.496h4.416v3.496h2.622v-5.336h-7.038v1.84zm.299 6.417h6.417v4.968h-6.417v-4.968zm5.037 3.68v-2.461h-3.634v2.461h3.634z" fill="#fff"/><path d="M144.143 1.704h11.799v1.541h-4.37v15.456c0 1.541-.69 2.323-2.047 2.323h-3.358l-.345-1.587c1.081.069 2.116.115 3.128.115.69 0 1.035-.414 1.035-1.242v-15.065h-5.842v-1.541zm-6.67 18.147v1.518h-1.587v-8.188h6.923v7.774h-1.587v-1.104h-3.749zm3.749-1.518v-3.657h-3.749v3.657h3.749zm-5.98-15.111h3.703c-.322-.92-.736-1.817-1.219-2.645l1.61-.437c.46 1.012.851 1.955 1.127 2.783l-.805.299h3.91v1.541h-8.326v-1.541zm.828 3.358h6.509v1.472h-6.509v-1.472zm0 3.174h6.509v1.495h-6.509v-1.495zm24.639-4.6v1.564h5.29v-1.564h-5.29zm5.29-1.173v-1.564h-5.29v1.564h5.29zm5.175 1.173v1.587h5.382v-1.587h-5.382zm5.382-1.173v-1.518h-5.382v1.518h5.382zm-8.901-2.875v6.946h-6.946v13.248h-1.656v-20.194h8.602zm8.901 6.946h-7.038v-6.923h8.694v18.239c0 1.219-.598 1.84-1.794 1.84-.759 0-1.518-.023-2.254-.069l-.207-.805c-.276.092-.598.161-.966.161h-1.955c-1.058 0-1.587-.552-1.587-1.61v-2.668h-2.024c-.322 2.116-1.817 3.68-4.508 4.669l-.828-1.334c2.254-.69 3.542-1.817 3.818-3.335h-1.656v-3.634c-.483.437-.989.828-1.495 1.15l-1.15-.989c1.748-1.058 3.059-2.461 3.933-4.232l1.311.529c-.414.782-.851 1.518-1.357 2.162h6.049c-.552-.69-.966-1.403-1.288-2.162l1.265-.713c.69 1.702 1.955 3.059 3.795 4.071l-.989 1.173c-.598-.368-1.127-.736-1.587-1.15v3.795h-1.748v2.346c0 .368.161.575.483.575h1.242c.276 0 .483-.092.621-.253.184-.23.299-.828.345-1.817l1.38.437c-.092 1.058-.253 1.794-.437 2.208.414.023.828.046 1.196.046.483 0 .736-.299.736-.897v-10.81zm-5.267 6.831v-2.369h-5.566v2.369h5.566z" fill="#fff"/><g fill-rule="nonzero"><path d="M62.367 19c-5.09 0-9.367-4.265-9.367-9.5s4.277-9.5 9.367-9.5c2.818 0 4.822 1.133 6.331 2.622l-1.776 1.827c-1.082-1.041-2.55-1.857-4.555-1.857-3.721 0-6.628 3.082-6.628 6.908 0 3.827 2.907 6.908 6.628 6.908 2.411 0 3.781-1 4.664-1.898.724-.745 1.191-1.806 1.369-3.265h-6.033v-2.602h8.494c.089.459.139 1.02.139 1.622 0 1.949-.516 4.357-2.183 6.071-1.627 1.735-3.691 2.663-6.45 2.663z" id="Shape" fill="#4285F4"/><path d="M85 13c0 3.456-2.69 6-6 6s-6-2.544-6-6c0-3.476 2.69-6 6-6s6 2.524 6 6zm-2.629 0c0-2.164-1.563-3.636-3.371-3.636-1.807 0-3.371 1.482-3.371 3.636 0 2.134 1.563 3.636 3.371 3.636 1.807 0 3.371-1.492 3.371-3.636z" id="Shape" fill="#E94235"/><path d="M98 13c0 3.456-2.69 6-6 6-3.299 0-6-2.544-6-6 0-3.476 2.69-6 6-6s6 2.524 6 6zm-2.619 0c0-2.164-1.563-3.636-3.371-3.636-1.807 0-3.371 1.482-3.371 3.636 0 2.134 1.563 3.636 3.371 3.636 1.807.01 3.371-1.492 3.371-3.636z" id="Shape" fill="#FABB05"/><path d="M110 7.362v10.531c0 4.336-2.499 6.107-5.457 6.107-2.786 0-4.452-1.908-5.084-3.465l2.192-.93c.393.959 1.35 2.085 2.891 2.085 1.896 0 3.064-1.204 3.064-3.445v-.842h-.086c-.565.714-1.656 1.331-3.025 1.331-2.872 0-5.495-2.554-5.495-5.843 0-3.308 2.633-5.892 5.495-5.892 1.369 0 2.46.626 3.025 1.311h.086v-.949h2.393zm-2.221 5.539c0-2.065-1.35-3.582-3.064-3.582-1.742 0-3.198 1.507-3.198 3.582 0 2.045 1.455 3.533 3.198 3.533 1.714 0 3.064-1.488 3.064-3.533z" id="Shape" fill="#4285F4"/><path id="Shape" fill="#34A853" d="M116 1v18h-3v-18z"/><path d="M125.844 14.973l2.046 1.362c-.662.982-2.256 2.664-5.014 2.664-3.419 0-5.876-2.634-5.876-6 0-3.566 2.487-6 5.585-6 3.119 0 4.643 2.474 5.144 3.816l.271.681-8.032 3.326c.612 1.202 1.574 1.823 2.918 1.823s2.276-.671 2.958-1.673zm-6.307-2.164l5.375-2.224c-.301-.751-1.183-1.272-2.236-1.272-1.344 0-3.209 1.182-3.139 3.496z" fill="#E94235"/></g></g></svg>
